docs/text-logo.svg

<svg xmlns="http://www.w3.org/2000/svg" width="3381" height="500" fill="none"><path fill="#fff" d="M500 250c0 138.071-111.929 250-250 250S0 388.071 0 250 111.929 0 250 0s250 111.929 250 250Z"/><path fill="#000" fill-rule="evenodd" d="m250.25 253.468-.482.13c-68.55 18.368-136.53-13.051-151.836-70.177-15.307-57.125 27.855-118.324 96.406-136.692 68.389-18.325 136.21 12.903 151.728 69.774l-54.092 14.494c-8.746-31.804-46.925-49.198-85.472-38.87-38.676 10.363-63.077 44.712-54.5 76.72 8.576 32.008 46.882 49.554 85.559 39.191l.482-.131.001.002.483-.13c81.353-21.798 162.078 15.669 180.303 83.686 18.225 68.017-32.951 140.827-114.305 162.625-81.353 21.799-162.078-15.668-180.303-83.685a110.14 110.14 0 0 1-.296-1.129l56.019-15.01c11.467 41.756 61.301 64.671 111.553 51.206 50.412-13.508 82.154-58.514 70.898-100.525-11.257-42.01-61.25-65.116-111.662-51.608l-.483.131-.001-.002Z" clip-rule="evenodd"/><path fill="#000" d="M720.949 424.123c-3.646 0-7.015-.391-10.107-1.172-3.06-.781-5.55-1.79-7.471-3.027l1.025-6.885c5.437 2.897 10.775 4.346 16.016 4.346 7.943 0 12.028-2.8 12.256-8.399 0-2.376-.846-4.248-2.539-5.615s-5.013-2.897-9.961-4.59l-4.053-1.416c-4.687-1.562-8.04-3.499-10.058-5.81-1.986-2.312-2.995-5.192-3.028-8.643 0-4.199 1.677-7.682 5.03-10.449 3.385-2.767 8.007-4.151 13.867-4.151 6.054 0 11.572 1.172 16.553 3.516l-2.393 6.25c-5.046-2.083-9.766-3.125-14.16-3.125-3.418 0-6.104.684-8.057 2.051-1.92 1.335-2.881 3.223-2.881 5.664 0 2.083.7 3.678 2.1 4.785 1.4 1.107 4.199 2.376 8.398 3.809a114.8 114.8 0 0 0 4.053 1.367c5.404 1.758 9.229 3.841 11.475 6.25 2.246 2.376 3.369 5.599 3.369 9.668-.065 4.948-1.839 8.789-5.322 11.523-3.484 2.702-8.187 4.053-14.112 4.053Zm61.475-44.775c-2.376-2.865-5.648-4.297-9.815-4.297-4.166 0-7.568 1.481-10.205 4.443-2.636 2.93-4.183 6.95-4.638 12.061h28.271c0-5.306-1.204-9.375-3.613-12.207Zm-8.203 44.775c-7.78 0-13.916-2.474-18.409-7.422-4.459-4.948-6.689-11.719-6.689-20.312 0-8.301 2.165-15.023 6.494-20.166 4.33-5.176 10.026-7.813 17.09-7.911 6.641 0 11.898 2.279 15.772 6.836 3.906 4.525 5.859 10.58 5.859 18.164 0 .391-.016 1.107-.049 2.149v2.246h-36.768c.098 6.087 1.661 10.84 4.688 14.258 3.06 3.385 7.161 5.078 12.305 5.078 5.664 0 11.344-1.497 17.041-4.492l1.269 6.592c-5.436 3.32-11.637 4.98-18.603 4.98ZM805.666 423v-53.564h6.836l1.025 7.666c2.116-2.637 4.753-4.753 7.911-6.348 3.19-1.628 6.624-2.442 10.302-2.442 6.185 0 10.759 1.742 13.721 5.225 2.962 3.451 4.443 8.773 4.443 15.967V423h-8.154c0-21.484-.016-32.992-.049-34.521-.13-4.558-1.058-7.894-2.783-10.01-1.693-2.116-4.541-3.174-8.545-3.174-4.199 0-7.699 1.009-10.498 3.027-2.799 2.018-4.622 4.639-5.469 7.862-.325 2.181-.488 4.687-.488 7.519V423h-8.252Zm57.813 0v-53.564h6.835l1.026 7.666c2.116-2.637 4.752-4.753 7.91-6.348 3.19-1.628 6.624-2.442 10.303-2.442 6.185 0 10.758 1.742 13.72 5.225 2.963 3.451 4.444 8.773 4.444 15.967V423h-8.155c0-21.484-.016-32.992-.048-34.521-.131-4.558-1.058-7.894-2.784-10.01-1.692-2.116-4.541-3.174-8.544-3.174-4.2 0-7.699 1.009-10.498 3.027-2.8 2.018-4.623 4.639-5.469 7.862-.326 2.181-.489 4.687-.489 7.519V423h-8.251Zm88.671-43.652c-2.376-2.865-5.647-4.297-9.814-4.297s-7.568 1.481-10.205 4.443c-2.637 2.93-4.183 6.95-4.639 12.061h28.272c0-5.306-1.205-9.375-3.614-12.207Zm-8.203 44.775c-7.78 0-13.916-2.474-18.408-7.422-4.46-4.948-6.689-11.719-6.689-20.312 0-8.301 2.164-15.023 6.494-20.166 4.329-5.176 10.026-7.813 17.09-7.911 6.64 0 11.897 2.279 15.771 6.836 3.906 4.525 5.859 10.58 5.859 18.164 0 .391-.016 1.107-.048 2.149v2.246h-36.768c.098 6.087 1.66 10.84 4.688 14.258 3.059 3.385 7.161 5.078 12.304 5.078 5.664 0 11.345-1.497 17.041-4.492l1.27 6.592c-5.436 3.32-11.638 4.98-18.604 4.98Zm55.469-55.176c1.464 0 2.804.098 4.004.293l-.29 7.52c-1.5-.261-2.8-.391-3.909-.391-4.558 0-8.269 1.595-11.133 4.785-2.832 3.158-4.248 7.08-4.248 11.768V423h-8.154c-.033-32.878-.049-50.732-.049-53.564h6.787l.781 9.619c1.856-3.028 4.216-5.469 7.08-7.325 2.865-1.855 5.908-2.783 9.131-2.783Zm5.564.489h8.64l16.9 44.58 15.04-44.58h8.64c-14.45 39.778-21.92 60.286-22.41 61.523-2.25 5.631-4.97 9.749-8.16 12.353-3.19 2.637-7.38 3.956-12.59 3.956-1.57 0-3.21-.131-4.93-.391l-.49-6.934c1.82.131 3.19.196 4.1.196 3.68 0 6.46-.684 8.35-2.051 1.92-1.335 3.63-3.858 5.13-7.568 1.33-3.418 2.32-6.055 2.97-7.911l-21.19-53.173ZM697.561 315l78.955-214.746h43.213L897.512 315h-40.723l-21.24-60.645h-75.147L739.016 315h-41.455Zm72.802-90.234h55.078c-17.578-56.348-26.611-85.45-27.099-87.305l-27.979 87.305ZM916.848 315V154.014h32.226l4.981 24.609c10.547-16.894 25.83-25.342 45.849-25.342 4.196 0 7.616.196 10.256.586l-.59 32.08c-3.9-.586-7.96-.879-12.156-.879-14.16 0-24.756 3.76-31.787 11.28-6.934 7.519-10.4 17.968-10.4 31.347V315h-38.379Zm168.162 2.93c-23.73 0-42.72-4.053-56.98-12.159l3.95-28.857c6.45 3.516 14.65 6.69 24.61 9.522 9.96 2.734 19.05 4.101 27.25 4.101 8.5 0 15.09-1.562 19.78-4.687 4.78-3.223 7.22-7.911 7.32-14.063 0-5.566-2.25-9.961-6.74-13.183-4.39-3.223-12.84-7.227-25.34-12.012-4.3-1.563-7.08-2.588-8.35-3.076-14.84-5.762-25.54-12.159-32.08-19.19-6.54-7.129-9.81-16.748-9.81-28.857 0-14.649 5.27-25.879 15.82-33.692 10.64-7.812 25.44-11.718 44.38-11.718 20.51 0 38.53 3.857 54.05 11.572l-9.52 26.514c-15.33-7.129-29.93-10.694-43.8-10.694-7.71 0-13.77 1.319-18.16 3.955-4.3 2.539-6.45 6.446-6.45 11.719 0 4.98 2.1 8.887 6.3 11.719 4.2 2.734 12.4 6.347 24.61 10.84.39.097 1.66.537 3.81 1.318 2.15.781 3.81 1.416 4.98 1.904 14.75 5.371 25.59 11.817 32.52 19.336 6.93 7.422 10.4 17.139 10.4 29.151-.1 16.113-5.57 28.564-16.41 37.353-10.84 8.789-26.22 13.184-46.14 13.184Zm167.43.146c-25.88 0-46.04-7.422-60.49-22.265-14.36-14.942-21.54-35.547-21.54-61.817 0-25.586 6.79-45.947 20.36-61.084 13.58-15.137 32.08-22.754 55.52-22.851 22.17 0 39.36 6.933 51.56 20.8 12.31 13.868 18.46 32.276 18.46 55.225 0 1.66-.05 4.346-.15 8.057v8.203h-107.08c.39 15.039 4.5 26.709 12.31 35.01 7.91 8.203 18.75 12.304 32.52 12.304 17.58 0 34.47-4.59 50.68-13.769l5.42 27.246c-16.11 9.961-35.3 14.941-57.57 14.941Zm-42.62-99.902h70.31c0-13.086-2.98-23.145-8.94-30.176-5.95-7.031-14.21-10.547-24.75-10.547-9.87 0-18.22 3.418-25.05 10.254-6.74 6.836-10.6 16.992-11.57 30.469ZM1347.66 315V154.014h30.91l4.24 20.361c16.41-16.211 34.62-24.316 54.64-24.316 18.75 0 32.77 5.42 42.04 16.259 9.38 10.743 14.07 26.368 14.07 46.875V315h-38.53v-97.119c-.1-12.988-2.2-22.705-6.3-29.151-4.1-6.445-11.47-9.668-22.12-9.668-8.3 0-15.91 2.149-22.85 6.446-6.83 4.199-11.81 9.521-14.94 15.967-1.86 7.617-2.78 19.336-2.78 35.156V315h-38.38Zm184.57 0V154.014h38.38V315h-38.38Zm0-184.424V97.764h38.52v32.812h-38.52ZM1611.62 315V154.014H1650V315h-38.38Zm0-184.424V97.764h38.53v32.812h-38.53ZM1773.2 315V100.4h39.69v182.959h89.8L1901.52 315H1773.2Zm154.24 0V154.014h38.38V315h-38.38Zm0-184.424V97.764h38.53v32.812h-38.53ZM2005.96 315V94.687l38.38-2.49v98.877l-.88 32.52c.1-.098 1.07-1.074 2.93-2.93 1.95-1.855 3.03-2.881 3.22-3.076 5.37-6.348 11.18-12.891 17.43-19.629 6.35-6.738 14.31-14.99 23.88-24.756 9.67-9.765 15.97-16.162 18.9-19.189h45.7l-66.21 68.554L2159.77 315h-46.44l-53.03-73.096-15.96 12.598V315h-38.38Zm171.97 0V94.687l38.38-2.49v46.436c0 2.246-.15 8.496-.44 18.75-.29 10.156-.44 15.332-.44 15.527 12.79-15.234 29.98-22.851 51.56-22.851 17.97 0 31.89 5.175 41.75 15.527 9.96 10.254 14.94 26.074 14.94 47.461V315h-38.38v-97.705c0-13.184-2.09-22.852-6.29-29.004-4.2-6.152-11.33-9.229-21.39-9.229-8.59 0-16.21 2.198-22.85 6.592-6.64 4.297-11.62 9.864-14.94 16.7-2.35 8.984-3.52 20.703-3.52 35.156V315h-38.38Zm226.17 3.076c-14.94 0-27.05-4.101-36.32-12.305-9.18-8.3-13.77-20.214-13.77-35.742 0-16.699 5.46-29.052 16.4-37.06 10.94-8.106 27.44-13.233 49.51-15.381 3.03-.391 6.3-.781 9.82-1.172 3.51-.391 7.47-.781 11.86-1.172 4.4-.39 7.86-.732 10.4-1.025v-8.496c0-9.766-2.24-16.846-6.73-21.241-4.5-4.492-11.33-6.738-20.51-6.738-13.09 0-29.25 3.662-48.49 10.986-.1-.292-1.71-4.736-4.83-13.33-3.13-8.593-4.74-12.988-4.84-13.183 18.95-8.106 39.46-12.158 61.53-12.158 21.68 0 37.45 4.736 47.31 14.209 9.86 9.375 14.8 24.609 14.8 45.703V315h-28.42c-.1-.391-1.17-3.662-3.22-9.814-2.06-6.153-3.08-9.424-3.08-9.815-8.01 7.813-15.87 13.574-23.58 17.285-7.62 3.614-16.9 5.42-27.84 5.42Zm10.4-27.246c8.89 0 16.61-2.1 23.15-6.299 6.64-4.297 11.38-9.472 14.21-15.527v-31.055c-.3 0-2.88.196-7.77.586-4.78.391-7.37.586-7.76.586-15.53 1.367-26.9 4.297-34.13 8.789-7.23 4.492-10.84 11.719-10.84 21.68 0 6.836 2 12.109 6.01 15.82 4 3.613 9.71 5.42 17.13 5.42Zm184.87 27.246c-24.61 0-43.8-7.324-57.57-21.972-13.67-14.649-20.51-35.596-20.51-62.842 0-26.367 7.18-46.826 21.53-61.377 14.46-14.551 33.45-21.826 56.99-21.826 18.84 0 34.76 4.052 47.75 12.158l-9.08 27.392c-13.28-6.933-25.64-10.4-37.06-10.4-12.99 0-23.24 4.639-30.76 13.916-7.43 9.277-11.14 22.803-11.14 40.576 0 17.969 3.67 31.641 10.99 41.016 7.42 9.375 17.87 14.062 31.35 14.062 14.06 0 27.59-4.15 40.57-12.451l3.67 29.151c-6.74 4.492-13.72 7.714-20.95 9.667-7.23 1.954-15.82 2.93-25.78 2.93Zm77.19-3.076V94.687l38.38-2.49v46.436c0 2.246-.14 8.496-.44 18.75-.29 10.156-.44 15.332-.44 15.527 12.8-15.234 29.98-22.851 51.57-22.851 17.97 0 31.88 5.175 41.75 15.527 9.96 10.254 14.94 26.074 14.94 47.461V315h-38.38v-97.705c0-13.184-2.1-22.852-6.3-29.004-4.2-6.152-11.33-9.229-21.39-9.229-8.59 0-16.21 2.198-22.85 6.592-6.64 4.297-11.62 9.864-14.94 16.7-2.34 8.984-3.52 20.703-3.52 35.156V315h-38.38Zm258.11 3.076c-25.88 0-46.05-7.422-60.5-22.265-14.35-14.942-21.53-35.547-21.53-61.817 0-25.586 6.79-45.947 20.36-61.084s32.08-22.754 55.52-22.851c22.17 0 39.35 6.933 51.56 20.8 12.3 13.868 18.46 32.276 18.46 55.225 0 1.66-.05 4.346-.15 8.057v8.203h-107.08c.39 15.039 4.49 26.709 12.31 35.01 7.91 8.203 18.75 12.304 32.51 12.304 17.58 0 34.48-4.59 50.69-13.769l5.42 27.246c-16.12 9.961-35.3 14.941-57.57 14.941Zm-42.63-99.902h70.32c0-13.086-2.98-23.145-8.94-30.176-5.96-7.031-14.21-10.547-24.76-10.547-9.86 0-18.21 3.418-25.04 10.254-6.74 6.836-10.6 16.992-11.58 30.469ZM3074.42 315l-64.16-160.986h40.72c1.56 4.394 6.49 18.066 14.79 41.015 8.4 22.852 13.97 38.428 16.7 46.729 5.57 16.211 9.57 28.467 12.01 36.767 0-.097.83-3.271 2.49-9.521 1.66-6.25 3.23-12.109 4.69-17.578 1.56-5.567 2.54-8.936 2.93-10.108.1-.195 4.54-13.672 13.33-40.429 8.89-26.758 14.16-42.383 15.82-46.875h40.43L3113.23 315h-38.81Z" class="text"/></svg>

<svg width="3200" height="500" viewBox="0 0 3200 500" fill="none" xmlns="http://www.w3.org/2000/svg">
<style>
+ @media (prefers-color-scheme: dark) {
+   .text { fill: #fff }
+ }
+ </style>
<path d="M500 250C500 388.071 388.071 500 250 500C111.929 500 0 388.071 0 250C0 111.929 111.929 0 250 0C388.071 0 500 111.929 500 250Z" fill="white"/>
<path fill-rule="evenodd" clip-rule="evenodd" d="M250.25 253.468C250.09 253.511 249.929 253.555 249.768 253.598C181.218 271.966 113.238 240.547 97.9316 183.421C82.6249 126.296 125.787 65.0966 194.338 46.7286C262.727 28.4037 330.548 59.6323 346.066 116.503L291.974 130.997C283.228 99.1929 245.049 81.7986 206.502 92.1271C167.826 102.49 143.425 136.839 152.002 168.847C160.578 200.855 198.884 218.401 237.561 208.038C237.722 207.995 237.883 207.951 238.043 207.907L238.044 207.909C238.205 207.866 238.365 207.823 238.527 207.779C319.88 185.981 400.605 223.448 418.83 291.465C437.055 359.482 385.879 432.292 304.525 454.09C223.172 475.889 142.447 438.422 124.222 370.405C124.121 370.029 124.023 369.653 123.926 369.276L179.945 354.266C191.412 396.022 241.246 418.937 291.498 405.472C341.91 391.964 373.652 346.958 362.396 304.947C351.139 262.937 301.146 239.831 250.734 253.339C250.572 253.382 250.412 253.426 250.251 253.47L250.25 253.468Z" fill="black"/>
<path class="text" d="M720.949 424.123C717.303 424.123 713.934 423.732 710.842 422.951C707.782 422.17 705.292 421.161 703.371 419.924L704.396 413.039C709.833 415.936 715.171 417.385 720.412 417.385C728.355 417.385 732.44 414.585 732.668 408.986C732.668 406.61 731.822 404.738 730.129 403.371C728.436 402.004 725.116 400.474 720.168 398.781L716.115 397.365C711.428 395.803 708.075 393.866 706.057 391.555C704.071 389.243 703.062 386.363 703.029 382.912C703.029 378.713 704.706 375.23 708.059 372.463C711.444 369.696 716.066 368.312 721.926 368.312C727.98 368.312 733.498 369.484 738.479 371.828L736.086 378.078C731.04 375.995 726.32 374.953 721.926 374.953C718.508 374.953 715.822 375.637 713.869 377.004C711.949 378.339 710.988 380.227 710.988 382.668C710.988 384.751 711.688 386.346 713.088 387.453C714.488 388.56 717.287 389.829 721.486 391.262C722.561 391.652 723.911 392.108 725.539 392.629C730.943 394.387 734.768 396.47 737.014 398.879C739.26 401.255 740.383 404.478 740.383 408.547C740.318 413.495 738.544 417.336 735.061 420.07C731.577 422.772 726.874 424.123 720.949 424.123ZM782.424 379.348C780.048 376.483 776.776 375.051 772.609 375.051C768.443 375.051 765.041 376.532 762.404 379.494C759.768 382.424 758.221 386.444 757.766 391.555H786.037C786.037 386.249 784.833 382.18 782.424 379.348ZM774.221 424.123C766.441 424.123 760.305 421.649 755.812 416.701C751.353 411.753 749.123 404.982 749.123 396.389C749.123 388.088 751.288 381.366 755.617 376.223C759.947 371.047 765.643 368.41 772.707 368.312C779.348 368.312 784.605 370.591 788.479 375.148C792.385 379.673 794.338 385.728 794.338 393.312C794.338 393.703 794.322 394.419 794.289 395.461C794.289 396.503 794.289 397.251 794.289 397.707H757.521C757.619 403.794 759.182 408.547 762.209 411.965C765.269 415.35 769.37 417.043 774.514 417.043C780.178 417.043 785.858 415.546 791.555 412.551L792.824 419.143C787.388 422.463 781.187 424.123 774.221 424.123ZM805.666 423V369.436H812.502L813.527 377.102C815.643 374.465 818.28 372.349 821.438 370.754C824.628 369.126 828.062 368.312 831.74 368.312C837.925 368.312 842.499 370.054 845.461 373.537C848.423 376.988 849.904 382.31 849.904 389.504V423H841.75C841.75 401.516 841.734 390.008 841.701 388.479C841.571 383.921 840.643 380.585 838.918 378.469C837.225 376.353 834.377 375.295 830.373 375.295C826.174 375.295 822.674 376.304 819.875 378.322C817.076 380.34 815.253 382.961 814.406 386.184C814.081 388.365 813.918 390.871 813.918 393.703V423H805.666ZM863.479 423V369.436H870.314L871.34 377.102C873.456 374.465 876.092 372.349 879.25 370.754C882.44 369.126 885.874 368.312 889.553 368.312C895.738 368.312 900.311 370.054 903.273 373.537C906.236 376.988 907.717 382.31 907.717 389.504V423H899.562C899.562 401.516 899.546 390.008 899.514 388.479C899.383 383.921 898.456 380.585 896.73 378.469C895.038 376.353 892.189 375.295 888.186 375.295C883.986 375.295 880.487 376.304 877.688 378.322C874.888 380.34 873.065 382.961 872.219 386.184C871.893 388.365 871.73 390.871 871.73 393.703V423H863.479ZM952.15 379.348C949.774 376.483 946.503 375.051 942.336 375.051C938.169 375.051 934.768 376.532 932.131 379.494C929.494 382.424 927.948 386.444 927.492 391.555H955.764C955.764 386.249 954.559 382.18 952.15 379.348ZM943.947 424.123C936.167 424.123 930.031 421.649 925.539 416.701C921.079 411.753 918.85 404.982 918.85 396.389C918.85 388.088 921.014 381.366 925.344 376.223C929.673 371.047 935.37 368.41 942.434 368.312C949.074 368.312 954.331 370.591 958.205 375.148C962.111 379.673 964.064 385.728 964.064 393.312C964.064 393.703 964.048 394.419 964.016 395.461C964.016 396.503 964.016 397.251 964.016 397.707H927.248C927.346 403.794 928.908 408.547 931.936 411.965C934.995 415.35 939.097 417.043 944.24 417.043C949.904 417.043 955.585 415.546 961.281 412.551L962.551 419.143C957.115 422.463 950.913 424.123 943.947 424.123ZM999.416 368.947C1000.88 368.947 1002.22 369.045 1003.42 369.24L1003.13 376.76C1001.63 376.499 1000.33 376.369 999.221 376.369C994.663 376.369 990.952 377.964 988.088 381.154C985.256 384.312 983.84 388.234 983.84 392.922V423H975.686C975.653 390.122 975.637 372.268 975.637 369.436H982.424L983.205 379.055C985.061 376.027 987.421 373.586 990.285 371.73C993.15 369.875 996.193 368.947 999.416 368.947ZM1004.98 369.436H1013.62L1030.52 414.016L1045.56 369.436H1054.2C1039.75 409.214 1032.28 429.722 1031.79 430.959C1029.54 436.59 1026.82 440.708 1023.63 443.312C1020.44 445.949 1016.25 447.268 1011.04 447.268C1009.47 447.268 1007.83 447.137 1006.11 446.877L1005.62 439.943C1007.44 440.074 1008.81 440.139 1009.72 440.139C1013.4 440.139 1016.18 439.455 1018.07 438.088C1019.99 436.753 1021.7 434.23 1023.2 430.52C1024.53 427.102 1025.52 424.465 1026.17 422.609L1004.98 369.436Z" fill="black"/>
<path class="text" d="M697.561 315L776.516 100.254H819.729L897.512 315H856.789L835.549 254.355H760.402L739.016 315H697.561ZM770.363 224.766H825.441C807.863 168.418 798.83 139.316 798.342 137.461L770.363 224.766ZM916.848 315V154.014H949.074L954.055 178.623C964.602 161.729 979.885 153.281 999.904 153.281C1004.1 153.281 1007.52 153.477 1010.16 153.867L1009.57 185.947C1005.67 185.361 1001.61 185.068 997.414 185.068C983.254 185.068 972.658 188.828 965.627 196.348C958.693 203.867 955.227 214.316 955.227 227.695V315H916.848ZM1085.01 317.93C1061.28 317.93 1042.29 313.877 1028.03 305.771L1031.98 276.914C1038.43 280.43 1046.63 283.604 1056.59 286.436C1066.55 289.17 1075.64 290.537 1083.84 290.537C1092.34 290.537 1098.93 288.975 1103.62 285.85C1108.4 282.627 1110.84 277.939 1110.94 271.787C1110.94 266.221 1108.69 261.826 1104.2 258.604C1099.81 255.381 1091.36 251.377 1078.86 246.592C1074.56 245.029 1071.78 244.004 1070.51 243.516C1055.67 237.754 1044.97 231.357 1038.43 224.326C1031.89 217.197 1028.62 207.578 1028.62 195.469C1028.62 180.82 1033.89 169.59 1044.44 161.777C1055.08 153.965 1069.88 150.059 1088.82 150.059C1109.33 150.059 1127.35 153.916 1142.87 161.631L1133.35 188.145C1118.02 181.016 1103.42 177.451 1089.55 177.451C1081.84 177.451 1075.78 178.77 1071.39 181.406C1067.09 183.945 1064.94 187.852 1064.94 193.125C1064.94 198.105 1067.04 202.012 1071.24 204.844C1075.44 207.578 1083.64 211.191 1095.85 215.684C1096.24 215.781 1097.51 216.221 1099.66 217.002C1101.81 217.783 1103.47 218.418 1104.64 218.906C1119.39 224.277 1130.23 230.723 1137.16 238.242C1144.09 245.664 1147.56 255.381 1147.56 267.393C1147.46 283.506 1141.99 295.957 1131.15 304.746C1120.31 313.535 1104.93 317.93 1085.01 317.93ZM1252.44 318.076C1226.56 318.076 1206.4 310.654 1191.95 295.811C1177.59 280.869 1170.41 260.264 1170.41 233.994C1170.41 208.408 1177.2 188.047 1190.77 172.91C1204.35 157.773 1222.85 150.156 1246.29 150.059C1268.46 150.059 1285.65 156.992 1297.85 170.859C1310.16 184.727 1316.31 203.135 1316.31 226.084C1316.31 227.744 1316.26 230.43 1316.16 234.141C1316.16 237.852 1316.16 240.586 1316.16 242.344H1209.08C1209.47 257.383 1213.58 269.053 1221.39 277.354C1229.3 285.557 1240.14 289.658 1253.91 289.658C1271.49 289.658 1288.38 285.068 1304.59 275.889L1310.01 303.135C1293.9 313.096 1274.71 318.076 1252.44 318.076ZM1209.82 218.174H1280.13C1280.13 205.088 1277.15 195.029 1271.19 187.998C1265.24 180.967 1256.98 177.451 1246.44 177.451C1236.57 177.451 1228.22 180.869 1221.39 187.705C1214.65 194.541 1210.79 204.697 1209.82 218.174ZM1347.66 315V154.014H1378.57L1382.81 174.375C1399.22 158.164 1417.43 150.059 1437.45 150.059C1456.2 150.059 1470.22 155.479 1479.49 166.318C1488.87 177.061 1493.56 192.686 1493.56 213.193V315H1455.03V217.881C1454.93 204.893 1452.83 195.176 1448.73 188.73C1444.63 182.285 1437.26 179.062 1426.61 179.062C1418.31 179.062 1410.7 181.211 1403.76 185.508C1396.93 189.707 1391.95 195.029 1388.82 201.475C1386.96 209.092 1386.04 220.811 1386.04 236.631V315H1347.66ZM1532.23 315V154.014H1570.61V315H1532.23ZM1532.23 130.576V97.7637H1570.75V130.576H1532.23ZM1611.62 315V154.014H1650V315H1611.62ZM1611.62 130.576V97.7637H1650.15V130.576H1611.62ZM1773.2 315V100.4H1812.89V283.359H1902.69L1901.52 315H1773.2ZM1927.44 315V154.014H1965.82V315H1927.44ZM1927.44 130.576V97.7637H1965.97V130.576H1927.44ZM2005.96 315V94.6875L2044.34 92.1973V191.074L2043.46 223.594C2043.56 223.496 2044.53 222.52 2046.39 220.664C2048.34 218.809 2049.42 217.783 2049.61 217.588C2054.98 211.24 2060.79 204.697 2067.04 197.959C2073.39 191.221 2081.35 182.969 2090.92 173.203C2100.59 163.438 2106.89 157.041 2109.82 154.014H2155.52L2089.31 222.568L2159.77 315H2113.33L2060.3 241.904L2044.34 254.502V315H2005.96ZM2177.93 315V94.6875L2216.31 92.1973V138.633C2216.31 140.879 2216.16 147.129 2215.87 157.383C2215.58 167.539 2215.43 172.715 2215.43 172.91C2228.22 157.676 2245.41 150.059 2266.99 150.059C2284.96 150.059 2298.88 155.234 2308.74 165.586C2318.7 175.84 2323.68 191.66 2323.68 213.047V315H2285.3V217.295C2285.3 204.111 2283.21 194.443 2279.01 188.291C2274.81 182.139 2267.68 179.062 2257.62 179.062C2249.03 179.062 2241.41 181.26 2234.77 185.654C2228.13 189.951 2223.15 195.518 2219.83 202.354C2217.48 211.338 2216.31 223.057 2216.31 237.51V315H2177.93ZM2404.1 318.076C2389.16 318.076 2377.05 313.975 2367.78 305.771C2358.6 297.471 2354.01 285.557 2354.01 270.029C2354.01 253.33 2359.47 240.977 2370.41 232.969C2381.35 224.863 2397.85 219.736 2419.92 217.588C2422.95 217.197 2426.22 216.807 2429.74 216.416C2433.25 216.025 2437.21 215.635 2441.6 215.244C2446 214.854 2449.46 214.512 2452 214.219V205.723C2452 195.957 2449.76 188.877 2445.27 184.482C2440.77 179.99 2433.94 177.744 2424.76 177.744C2411.67 177.744 2395.51 181.406 2376.27 188.73C2376.17 188.438 2374.56 183.994 2371.44 175.4C2368.31 166.807 2366.7 162.412 2366.6 162.217C2385.55 154.111 2406.06 150.059 2428.13 150.059C2449.81 150.059 2465.58 154.795 2475.44 164.268C2485.3 173.643 2490.24 188.877 2490.24 209.971V315H2461.82C2461.72 314.609 2460.65 311.338 2458.6 305.186C2456.54 299.033 2455.52 295.762 2455.52 295.371C2447.51 303.184 2439.65 308.945 2431.94 312.656C2424.32 316.27 2415.04 318.076 2404.1 318.076ZM2414.5 290.83C2423.39 290.83 2431.11 288.73 2437.65 284.531C2444.29 280.234 2449.03 275.059 2451.86 269.004V237.949C2451.56 237.949 2448.98 238.145 2444.09 238.535C2439.31 238.926 2436.72 239.121 2436.33 239.121C2420.8 240.488 2409.43 243.418 2402.2 247.91C2394.97 252.402 2391.36 259.629 2391.36 269.59C2391.36 276.426 2393.36 281.699 2397.37 285.41C2401.37 289.023 2407.08 290.83 2414.5 290.83ZM2599.37 318.076C2574.76 318.076 2555.57 310.752 2541.8 296.104C2528.13 281.455 2521.29 260.508 2521.29 233.262C2521.29 206.895 2528.47 186.436 2542.82 171.885C2557.28 157.334 2576.27 150.059 2599.81 150.059C2618.65 150.059 2634.57 154.111 2647.56 162.217L2638.48 189.609C2625.2 182.676 2612.84 179.209 2601.42 179.209C2588.43 179.209 2578.18 183.848 2570.66 193.125C2563.23 202.402 2559.52 215.928 2559.52 233.701C2559.52 251.67 2563.19 265.342 2570.51 274.717C2577.93 284.092 2588.38 288.779 2601.86 288.779C2615.92 288.779 2629.45 284.629 2642.43 276.328L2646.1 305.479C2639.36 309.971 2632.38 313.193 2625.15 315.146C2617.92 317.1 2609.33 318.076 2599.37 318.076ZM2676.56 315V94.6875L2714.94 92.1973V138.633C2714.94 140.879 2714.8 147.129 2714.5 157.383C2714.21 167.539 2714.06 172.715 2714.06 172.91C2726.86 157.676 2744.04 150.059 2765.63 150.059C2783.6 150.059 2797.51 155.234 2807.38 165.586C2817.34 175.84 2822.32 191.66 2822.32 213.047V315H2783.94V217.295C2783.94 204.111 2781.84 194.443 2777.64 188.291C2773.44 182.139 2766.31 179.062 2756.25 179.062C2747.66 179.062 2740.04 181.26 2733.4 185.654C2726.76 189.951 2721.78 195.518 2718.46 202.354C2716.12 211.338 2714.94 223.057 2714.94 237.51V315H2676.56ZM2934.67 318.076C2908.79 318.076 2888.62 310.654 2874.17 295.811C2859.82 280.869 2852.64 260.264 2852.64 233.994C2852.64 208.408 2859.43 188.047 2873 172.91C2886.57 157.773 2905.08 150.156 2928.52 150.059C2950.69 150.059 2967.87 156.992 2980.08 170.859C2992.38 184.727 2998.54 203.135 2998.54 226.084C2998.54 227.744 2998.49 230.43 2998.39 234.141C2998.39 237.852 2998.39 240.586 2998.39 242.344H2891.31C2891.7 257.383 2895.8 269.053 2903.62 277.354C2911.53 285.557 2922.37 289.658 2936.13 289.658C2953.71 289.658 2970.61 285.068 2986.82 275.889L2992.24 303.135C2976.12 313.096 2956.94 318.076 2934.67 318.076ZM2892.04 218.174H2962.36C2962.36 205.088 2959.38 195.029 2953.42 187.998C2947.46 180.967 2939.21 177.451 2928.66 177.451C2918.8 177.451 2910.45 180.869 2903.62 187.705C2896.88 194.541 2893.02 204.697 2892.04 218.174ZM3074.42 315L3010.26 154.014H3050.98C3052.54 158.408 3057.47 172.08 3065.77 195.029C3074.17 217.881 3079.74 233.457 3082.47 241.758C3088.04 257.969 3092.04 270.225 3094.48 278.525C3094.48 278.428 3095.31 275.254 3096.97 269.004C3098.63 262.754 3100.2 256.895 3101.66 251.426C3103.22 245.859 3104.2 242.49 3104.59 241.318C3104.69 241.123 3109.13 227.646 3117.92 200.889C3126.81 174.131 3132.08 158.506 3133.74 154.014H3174.17L3113.23 315H3074.42Z" fill="black"/>
</svg>
